X:1
T:Ie changeray
T:Ie changeray
T:Pierre de Manchicourt
C:Pierre de Manchicourt
%%score [ 1 2 [ 3 4 ] ]
L:1/8
Q:1/4=97
M:2/2
K:C
V:1 treble nm="Superius" snm="S"
V:2 treble nm="Altus" snm="A"
V:3 treble-8 nm="Tenor 1" snm="T 1"
V:4 treble-8 nm="Tenor 2" snm="T 2"
V:1
 A4 d2 d2 | d2 f2 e3 d | cd ec de f2- | f2 ed cB A/B/c/d/ | e2 A2 B2 c2 |"^#" A2 d4 c2 | d8 | %7
w: Je chan- ge-|ray quoy qu'il men|doibt _ _ _ _ _ ad-|||* * ve-|nir,|
 z2 d2 d2 d2 | c2 c2 c4- | c2 f2 e2 d2 | c8 | z2 A2 c2 d2 | AB cd e2 f2 | c2 d4 c2 | BA c2 B2 A2- | %15
w: car nul- le|ment ne veult|_ en- tre- te-|nir|cel- le qui|nest _ _ _ _ en|a- mour rai-|son- * na- * *|
 A2 G2 A4- | A4 z2 A2 | A2 G2 A2 c2 | d2 d2 f2 e2 | d2 f4 ed | cd ec d2 e2 |"^b""^b" dc BA B4 | %22
w: * * ble,|_ et|tout- tet- fois d'ung|vou- loir im- mu-|a- * * *|||
 A4 z4 | z4 z2 c2 | B2 A2 c2 c2 | d2 e2 f2 e2- | e2 d2 e4- | e4 z2 A2 | c2 c2 A2 c2 | c2 e2 d2 c2 | %30
w: ble|ne|de- man- dois qu'à|el- le par- *|* ve- nir,|_ mais-|quant je vois son|cueur si va- ri-|
 d2 f4 ed | c4 z2 A2 | d2 d2 d2 f2 | e2 d2 cd ec | de f4 ed | cB A/B/c/d/ e2 A2 | B2 c2 A2 B2 | %37
w: a- * * *|ble, je|chan- ge- ray quoy|qu'il men doibt _ _ _|_ _ ad- * *|* * * * * * * ve-|nir, quoy qu'il men|
 c2 d4 c2 | d2 z A d2 d2 | d2 f2 e2 d2- | d2 c2 d4 |"^#" c8 |] %42
w: doibt ad- ve-|nir, quoy qu'il men|doibt ad- * *|* * ve-|nir.|
V:2
 z8 | D4 A2 A2 | A2 c2 B2 A2 | F2 A4 GF | E3 F G2 A2 | c2 B2 A4 | F4 z2 A2 |"^b""^b" A2 A2 B2 B2 | %8
w: |Je chan- ge-|ray quoy qu'il men|doibt ad- * *||* * ve-|nir, car|nul- le- ment ne|
 A4 z2 A2- | A2 c4 B2 | A8- | A8 | z2 E2 G2 A2 | E2 A2 A2 A2 | D2 F4 D2 | E4 z2 F2 | F2 E2 F4 | %17
w: veult en-|* tre- te-|nir|_|cel- le qui|nest en a- mour|rai- son- na-|ble, et|tout- tef- fois|
 D3 E FG A2- | A2 G2 A2 A2 | F2 A3 F G2 | A8 | z2 F2 E2 D2 | F2 F2 G2 A2 | G2 F2 A4 | G2 C3 DEC | %25
w: d'ung _ _ _ _|_ vou- loir im-|mu a- * *|ble|ne de- man-|dois qu'à el- le|par- * *||
 G4 A3 G | F4 E4 | z2 E2 F2 F2 | E2 C2 D2 C2 | A,2 C2 D2 E2 | F2 A4 G2 | A8 | z4 D4 | A2 A2 A2 c2 | %34
w: |ve- nir,|mais quant je|vois son cueur si|va- ri- a- *||ble,|je|chan- ge- ray quoy|
 B2 A2 F2 A2- | A2 GF E3 F | G2 A2 z2 D2 | A2 A2 A2 c2 |"^b""^b" B2 A2 B2 B2 | A8- | A8- | A8 |] %42
w: qu'il men doibt ad-||ve- nir, quoy|qu'il men doibt ad-|* * * ve-|nir.|_||
V:3
 z8 | z8 | A4 d2 d2 | d2 f2 e3 d | c2 e2 d2 e2 | f2 g2 e4 | d4 z2 f2 | f2 f2 f2 g2 | e3 d e2 f2 | %9
w: ||Je chan- ge-|ray quoy qu'il men|doibt ad- * *|* * ve-|nir, car|nul- le- ment ne|veult _ _ en-|
 e2 a2 g2 f2 | e2 A2 cB cd | e2 f2 e2 d2 |"^b" c2 c2 B2 c2- | cA f2 ed ef | g2 c2 dc BA | %15
w: tre- * * te-|nir cel- le _ _ _|_ qui nest en|a- mour rai- son-|* * na- * * * *||
 B4 z2 d2 | d2 c2 dc BA | B4 A4 | z2 d2 d2 c2 | d2 A2 B4 | A2 c2 f2 e2 | f4 g4 | z2 c2 B2 A2 | %23
w: ble, et|tout- * * * * *|tef- fois|et tout- tef-|fois d'ung vou-|loir im- mu- a-|* ble|ne de- man-|
 c2 d2 c3 d | e2 f2 e2 c2- | c2 B2 c4 | z2 A2 c2 c2 | A4 z2 c2 | c2 e2 f2 e2- | ed ef g2 a2- | %30
w: dois qu'à el- le|par- * * *|* ve- nir,|mais quant je|vois son|cueur si va- ri-|a- * * * * *|
 agfe d4 | z2 e2 f2 f2 | f2 a2 d2 a2- | ag f2 e2 A2 | d2 d2 d2 f2 | e3 d c2 e2 | d2 e2 f2 g2 | %37
w: * * * * ble,|je chan- ge-|ray quoy qu'il men|_ _ doibt ad- *|* ve- nir, je|chan- ge- ray quoy|qu'il men doibt ad-|
 c2 f2 e4 | z2 e2 f2 g2 | f2 d2 e2 f2- | f2 e2 f4 | e8 |] %42
w: * ve- nir,|quoy qu'il men|doibt ad- * *|* * ve-|nir.|
V:4
 z8 | z8 | z8 | D4 A2 A2 | A2 c2 B2 A2- | A2 G2 A4 | D2 d2 d4- |"^b" d2 d2 B2 G2 | A6 F2 | %9
w: |||Je chan- ge-|ray quoy qu'il men|_ doibt ad-|* ve- nir,|_ car nul- le-|ment ne|
 A3 B c2 d2 | A4 z2 A2 | c2 d2 A2 DE | FG A2 G2 F2 | A2 D2 A4 | G2 F2 D2 F2 | E4 F2 D2 | A4 D4 | %17
w: veult en- tre- te-|nir cel-|le qui n'est en _|_ _ _ a- mour|rai- son- na-||ble, et tout-|tef- fois|
 z2 d2 dc cB/A/ | B2 B2 A4 | z2 c2 d2 d2 | f2 e2 d2 c2 | _B3 A G4 | F4 z2 F2 | E2 D2 F2 F2 | %24
w: et- tout- * * * *|* tef- fois|d'ung vou- loir|im- mu- a- *||ble ne|de- man- dois qu'à|
 G2 F2 A4 | G4 F2 C2 | D4 z2 A2 | c2 c2 F3 G | A2 A2 D2 A2 | c2 c2 B2 A2 | d3 c B4 | z2 A2 d2 d2 | %32
w: el- le par-|* * ve-|nir, mais|quant je vois _|_ son cueur si|va- ri- a- *|* * ble,|je chan- ge|
 d2 f3 e d2 | c2 d2 A4 | D4 z2 D2 | A2 A2 A2 c2 | B2 A4 G2 | F2 D2 A4 |"^b" G2 c2 B2 G2 | %39
w: ray quoy qu'il men|doibt ad- ve-|nir, je|chan- ge- ray quoy|qu'il men doibt|ad- * ve-|nir, quoy qu'il men|
 d4 c2 d2 | A4 D4 | A8 |] %42
w: doibt ad- *|* ve-|nir.|

